src/icons/outline/ai/ai-chat.svg

<svg width="24" height="24" viewBox="0 0 24 24" fill="none" xmlns="http://www.w3.org/2000/svg">
<g clip-path="url(#clip0_6350_1316)">
<path d="M10.8594 3.70898C11.2787 3.70898 11.6269 4.05787 11.627 4.47852C11.627 4.89922 11.2787 5.24805 10.8594 5.24805H3.65918C3.03531 5.24807 2.53419 5.75105 2.53418 6.37695V16.207C2.53418 16.8329 3.03531 17.3359 3.65918 17.3359H5.72559C6.14477 17.3361 6.49219 17.6849 6.49219 18.1055V21.2764C6.49227 21.3582 6.53314 21.4198 6.60449 21.4404C6.67597 21.4712 6.74771 21.4505 6.79883 21.3994L10 17.9004C10.3273 17.5413 10.7879 17.3457 11.2686 17.3457H17.917C18.5407 17.3456 19.0418 16.8435 19.042 16.2178V12.6055C19.042 12.1849 19.3894 11.8361 19.8086 11.8359C20.2279 11.8359 20.5762 12.1848 20.5762 12.6055V16.2178C20.576 17.6849 19.3793 18.8856 17.917 18.8857H11.2686C11.2631 18.8869 11.1656 18.9074 11.1357 18.9473L7.93457 22.4463C7.59715 22.8155 7.14705 22.9999 6.67676 23C6.47227 23 6.25723 22.959 6.05273 22.877C5.388 22.6205 4.9581 21.9843 4.95801 21.2764V18.875H3.65918C2.1864 18.875 1 17.6744 1 16.207V6.37695C1.00001 4.90963 2.19663 3.70901 3.65918 3.70898H10.8594Z" fill="#3C3B44"/>
<path fill-rule="evenodd" clip-rule="evenodd" d="M18.3672 1C18.7352 1.00018 19.0525 1.2567 19.124 1.62598C19.4514 3.28823 20.7605 4.63259 22.3867 4.96094C22.7546 5.0329 22.9998 5.36087 23 5.71973C23 6.07874 22.7445 6.40751 22.3867 6.47949C20.7605 6.80785 19.4513 8.14189 19.124 9.81445C19.0524 10.1734 18.7352 10.4402 18.3672 10.4404C17.9991 10.4404 17.682 10.1837 17.6104 9.81445C17.2831 8.15228 15.9737 6.80798 14.3477 6.47949C13.9795 6.40766 13.7334 6.07887 13.7334 5.71973C13.7336 5.36074 13.9898 5.03274 14.3477 4.96094C15.9737 4.63247 17.2831 3.29843 17.6104 1.62598C17.682 1.26685 17.999 1 18.3672 1ZM18.3564 3.85254C17.886 4.61185 17.252 5.25846 16.5156 5.73047C17.2622 6.20248 17.8962 6.8491 18.3564 7.6084C18.8269 6.84916 19.461 6.20247 20.1973 5.73047C19.4507 5.25847 18.8167 4.6118 18.3564 3.85254Z" fill="#3C3B44"/>
</g>
<defs>
<clipPath id="clip0_6350_1316">
<rect width="24" height="24" fill="white"/>
</clipPath>
</defs>
</svg>

<svg xmlns="http://www.w3.org/2000/svg" width="24" height="24" fill="none" viewBox="0 0 24 24"><g fill="currentColor" clip-path="url(#a)"><path d="M10.86 3.709c.419 0 .767.349.767.77 0 .42-.348.769-.768.769h-7.2c-.624 0-1.125.503-1.125 1.129v9.83c0 .626.501 1.129 1.125 1.129h2.067c.419 0 .766.349.766.77v3.17c0 .082.041.144.112.164.072.031.144.01.195-.04L10 17.9a1.7 1.7 0 0 1 1.269-.554h6.648c.624 0 1.125-.503 1.125-1.128v-3.613c0-.42.347-.769.767-.77.419 0 .767.35.767.77v3.613a2.67 2.67 0 0 1-2.659 2.668h-6.648c-.006 0-.103.021-.133.061l-3.201 3.5a1.68 1.68 0 0 1-1.882.43 1.71 1.71 0 0 1-1.095-1.6v-2.402H3.659A2.664 2.664 0 0 1 1 16.207v-9.83a2.67 2.67 0 0 1 2.66-2.668z"/><path fill-rule="evenodd" d="M18.367 1c.368 0 .685.257.757.626.327 1.662 1.637 3.007 3.263 3.335.368.072.613.4.613.759a.78.78 0 0 1-.613.76c-1.626.328-2.936 1.662-3.263 3.334a.78.78 0 0 1-.757.626.77.77 0 0 1-.757-.626c-.327-1.662-1.636-3.006-3.262-3.335a.77.77 0 0 1-.615-.76c0-.358.257-.686.615-.758 1.626-.329 2.935-1.663 3.262-3.335A.78.78 0 0 1 18.367 1m-.01 2.853a6 6 0 0 1-1.841 1.877 5.76 5.76 0 0 1 1.84 1.878 6 6 0 0 1 1.841-1.878 5.76 5.76 0 0 1-1.84-1.877" clip-rule="evenodd"/></g><defs><clipPath id="a"><path fill="currentColor" d="M0 0h24v24H0z"/></clipPath></defs></svg>
